dist/svgs/file2.svg

<svg xmlns="http://www.w3.org/2000/svg" viewBox="0 0 512 512"><path d="M448 159L320 31v128h128zM324-1l140 138v324q0 9-5 19-2 8-11 17-6 6-16 11-11 3-21 3H100q-11 0-20-3-5-2-9-4.5t-7-6.5q-8-8-12-17-4-8-4-19V50q0-11 4-19 4-9 12-17 6-8 16-11 5-2 10-3t10-1h224z"/></svg>

<?xml version="1.0" encoding="UTF-8" standalone="no"?><svg   xmlns:svg="http://www.w3.org/2000/svg"   xmlns="http://www.w3.org/2000/svg"   version="1.1"   width="512"   height="512"   viewBox="0 0 512 512">  <path     d="M448 159L320 31V159H448zM324 -1L464 137V461Q464 470 459 480Q457 488 448 497Q442 503 432 508Q421 511 411 511H100Q89 511 80 508Q75 506 71 503.5T64 497Q56 489 52 480Q48 472 48 461V50Q48 39 52 31Q56 22 64 14Q70 6 80 3Q85 1 90 0T100 -1H324z"     id="file2" /></svg>
